X:1
T:St. Bavon, CM
T:St. Bavon, CM
T:Charles Edward Horsley, 1857
T:Public Domain Courtesy of the Cyber Hymnal™
C:Charles Edward Horsley, 1857
Z:Public Domain
Z:Courtesy of the Cyber Hymnal™
%%score ( 1 2 ) ( 3 4 )
L:1/8
Q:1/4=107
M:none
K:D
V:1 treble 
V:2 treble 
V:3 bass 
V:4 bass 
V:1
 [DF]2 | [DG]2 [CE]2 D2 [DF]2 | [CA]2 B2 [DA]2 [DA]2 | [DB]2 [CA]2 [Dd]2 [DF]2 | [CE]6 (EF) | %5
 [B,G]2 [A,A]2 [A,F]2 [DA]2 | [DB]2 [Ec]2 [Dd]2 [DB]2 | [DA]2 [DF]2 [EG]2 [CE]2 | D6 |] %9
V:2
 x2 | x4 D2 x2 | x2 (B,C) x4 | x8 | x6 C2 | x8 | x8 | x8 | D6 |] %9
V:3
 [D,A,]2 | [G,,B,]2 (A,G,) [B,,F,]2 [B,,D,]2 | (E,F,) [G,,G,]2 [D,F,]2 [F,A,]2 | %3
 G,2 [G,E]2 [F,A,]2 [D,A,]2 | [A,,A,]6 [A,,A,]2 | [B,,D,]2 [C,E,]2 [D,F,]2 (F,A,) | %6
 [G,,G,A,]2 [E,,E,G,]2 [B,,F,]2 [G,,G,]2 | [F,,A,]2 [B,,B,]2 [G,,B,]2 (A,G,) | [D,F,]6 |] %9
V:4
 x2 | x2 A,,2 x4 | A,,2 x6 | G,2 x6 | x8 | x6 F,,2 | x8 | x6 A,,2 | x6 |] %9

